X:1
T:Modlitwa, gdy dziatki idą spać / Już się zmierzcha
T:Wacław z Szamotół (ok. 1533 r. - ok. 1568) 
T:Z pierwodruku Łazarza Andrysowicza w Krakowie z ok. 1556 r.
T:© Maciej Łuczka Chór Hosanna
T:© Maciej Łuczka Chór Hosanna
Z:© Maciej Łuczka
Z:Chór Hosanna
%%score 1 2 3 4
L:1/8
Q:1/4=72
M:4/4
K:Eb
V:1 treble nm="Sopran" snm="S."
V:2 treble nm="Alt" snm="A."
V:3 treble-8 nm="Tenor" snm="T."
V:4 bass nm="Bas" snm="B."
V:1
"^Adagio"!pp! c8 | c4 B4 | !breath!A2 c2 (e3 d | c=B)!>(! (c4 B2)!>)! | !breath!c4 c2 (e2- | %5
w: Już|się zmierz|ka nad- cho _|_ _ dzi _|noc,   po- pro|
 e2 dc B4) | (A2 c4 BA | B4) A2 (c2- | cd e2 f4 |!>(! !breath!e8)!>)! | z4!mf!!<(! c4 | A4 F4!<)! | %12
w: _ _ _ my|Bo _ _ _|ga o po|_ _ _ _|moc,|a-|by On|
 (B4 E2!<(! e2- | e2)!<)! d2 c4- | c4 F2 (f2- | fe d2!<(! c4)!<)! | BAGF (E2 e2 | dcBA) (G3 A) | %18
w: na- * *|*  szym   stra-|żem był, od|_ _ _ _|złych _ _ _ czar _|_ _ _ _ tów _|
!<(! B2 c4 =B2!<)! | !breath!!fermata!c8 |!pp! G8 | G4 A4 | G4 E4 | F4 F4 | E2 (e3 d cB | %25
w: nas   o- bro-|nił.|któ-|rzy na-|wię- cej|w ciem- no-|ści u _ _ _|
 A2) F2 (A4- | A2 GF) !breath!G4 | (E2[Q:1/4=60]"^poco rallentando" G2) (F2 A2 | %28
w: _ ży- wa|_ _ _ ją|swej _ chy _|
 G2) (F4!>(! =E2)!>)! | !fermata!F8 |] %30
w: _ tro _|ści.|
V:2
!p! (CDEF G2 A2- | A)G (F4 =E2) | !breath!F2 _E2 A4 |!>(! G8!>)! | !breath!E4 G4 | G8 | A4 G4- | %7
w: Ju _ _ _ _ _|uż się zmie _|rzka, nad cho|dzi|noc, po-|pro-|śmy Bo|
 G4 EDCB, | (A,2 G,2) !>!F,4 | !breath!G,4!mf! G4 | E4!<(! C4-!<)! | C4 D4 | B,4!<(! B4!<)! | %13
w: _ ga _ _ _|o * po-|moc, a-|by On|_ na|_ szym|
 (c2 BA) G4 | A4 z2 (A,2 |!<(! B,4 C3 D)!<)! | E2 D2 (C2 c2 | BAGF) (E3 D/C/) |!<(! D2 C2 G4!<)! | %19
w: stra- * * żem|był, od|_ _ _|złych _ czar _|_ _ _ _ tów _ _|nas o- bro-|
 !breath!!fermata!E8 |!pp! E8 | E4 (C2 F2) |!<(! (D2 E3 D) (CB,)!<)! |!<(! C4!>(! D4!<)!!>)! | %24
w: nił.|któ-|rzy na _|wię _ _ cej _|w ciem- no-|
 !breath!C8 | (F4 F2 C2- |!<(! C2 D2 (E2 G2-!<)! | GF)(E!breath!D)) C4 | _D4!>(! C4!>)! | %29
w: ści|u- ży- wa|_ _ _ _|* * ją _ swej|chy- tro-|
 !fermata!C8 |] %30
w: ści.|
V:3
!p! c8 | A4 B4 | !breath!c4 c4 |!>(! e4 d4!>)! | !breath!c8 | e8 | f4 e4 | d4 c4 | c4 !tenuto!=B4 | %9
w: Już|się zmierz|ka, nad|cho- dzi|noc-|,po-|proś- my|Bo- ga|o po-|
 !breath!c8 |!mf!!<(! c8!<)! | f4 d4 | e4 g4 | f4 e4 | f8 | f8 | B4 c4 | d4 e4 |!<(! f4 d4!<)! | %19
w: moc,|a-|by On|na- szym|stra- żem|był,|od|złych czar-|tów nas|o- bro-|
 !breath!!fermata!c8 |!pp!!<(! c8!<)! | B4 A4 | B4 G4 |!<(! A4!>(! B4!<)!!>)! | !breath!G8 | F8 | %26
w: nił.|któ-|rzy na-|wię- cej|w ciem- no-|ści|u-|
!<(! A4 B4!<)! | !breath!c4 A4 | B4!>(! G4!>)! | !fermata!F8 |] %30
w: ży- wa-|ją swej|chy- tro-|ści.|
V:4
!p! (C,3 D, E,2 F,2- | F,G,) A,2 G,4 | F,2 (A,3 B, C2- | C2) C,2!>(! G,4!>)! | C,4 (C,2 C2- | %5
w: Ju _ _ _|_ ż się zmie|rzka na _ _|_ dcho- dzi-|noc. Po- pro|
 C2 B,A,) G,4 |!<(! F,4 (C,D,E,F,!<)! | G,2) G,2 (A,3 G,) | F,2 E,2 D,4 | !breath!C,8 | %10
w: _ _ _ śmy|Bo _ _ _ _|_ ga o *|po _ _|moc,|
!f! C4!<(! A,4!<)! | F,4 (B,4 | E,2) (!tenuto!E,3 F, G,2 | A,2) B,2 (C4 | F,4) F,4 | %15
w: a- by|on na|_ szy _ _|_ ym stra|_ żem|
 !breath!B,,2!<(! (B,4 A,2)!<)! | G,4 A,4 | B,4 C4 |!<(! (B,2 A,2) G,4!<)! | !breath!!fermata!C,8 | %20
w: był, od _|złych cza|rtów nas|o _ bro|nił.|
!pp!!<(! C,8!<)! | E,4 F,4 | G,4 C,4 |!<(! F,4!>(! B,,4!<)!!>)! | !breath!C,8 | z2 (C3 B,A,G, | %26
w: któ|rzy na|wię cej|w ciem no|ści|u _ _ _|
!<(! F,2) F,2 E,4!<)! | !breath!C,4 F,4 | B,,4!>(! C,4!>)! | !fermata!F,8 |] %30
w: _ ży- wa-|ją swej|chy tro|ści.|

